packages/astro-components-stencil/src/icons/library-music.svg

<svg xmlns="http://www.w3.org/2000/svg" viewBox="0 0 24 24"><g xmlns="http://www.w3.org/2000/svg" id="library-music" fill-rule="nonzero">
            <path d="M20 2H8c-1.1 0-2 .9-2 2v12c0 1.1.9 2 2 2h12c1.1 0 2-.9 2-2V4c0-1.1-.9-2-2-2zm-3 5h-2v5.37c0 1.27-.9 2.44-2.16 2.6a2.505 2.505 0 01-2.8-2.95c.2-1.1 1.18-1.95 2.3-2.02.63-.04 1.2.16 1.66.51V6c0-.55.45-1 1-1h2c.55 0 1 .45 1 1s-.45 1-1 1zM3 6c-.55 0-1 .45-1 1v13c0 1.1.9 2 2 2h13c.55 0 1-.45 1-1s-.45-1-1-1H5c-.55 0-1-.45-1-1V7c0-.55-.45-1-1-1z"/>
        </g></svg>

<svg width="24" height="24" viewBox="0 0 24 24" fill="none" xmlns="http://www.w3.org/2000/svg">
<path fill-rule="evenodd" clip-rule="evenodd" d="M20 2H8C6.9 2 6 2.9 6 4V16C6 17.1 6.9 18 8 18H20C21.1 18 22 17.1 22 16V4C22 2.9 21.1 2 20 2ZM17 7H15V12.37C15 13.64 14.1 14.81 12.84 14.97C11.15 15.2 9.73 13.72 10.04 12.02C10.24 10.92 11.22 10.07 12.34 10C12.97 9.96 13.54 10.16 14 10.51V6C14 5.45 14.45 5 15 5H17C17.55 5 18 5.45 18 6C18 6.55 17.55 7 17 7ZM2 7C2 6.45 2.45 6 3 6C3.55 6 4 6.45 4 7V19C4 19.55 4.45 20 5 20H17C17.55 20 18 20.45 18 21C18 21.55 17.55 22 17 22H4C2.9 22 2 21.1 2 20V7Z" fill="black"/>
</svg>
